img/map__logo-light.svg

<svg width="65" height="73" viewBox="0 0 65 73" fill="none" xmlns="http://www.w3.org/2000/svg">
<circle cx="32.2334" cy="32.3574" r="32" fill="#DBBC9A"/>
<path d="M32.7334 72.3574L27.1042 61.8574L38.3626 61.8574L32.7334 72.3574Z" fill="#DBBC9A"/>
<path d="M12.2334 25.8113L13.3736 24.9734V46.4361H12.2334V25.8113Z" fill="black"/>
<path d="M16.0866 23.2947V46.4359H14.9551V43.4564H15.5209V29.0221L14.9551 29.441V24.1298L16.0866 23.2947Z" fill="black"/>
<path d="M18.8082 21.613V46.4356H17.6709V43.4561H18.2367V27.3487L17.6709 27.7677V22.4564L18.8082 21.613Z" fill="black"/>
<path d="M21.5279 19.9351V46.4361H20.3877V43.4566H20.9564V25.668L20.3877 26.0814V20.7729L21.5279 19.9351Z" fill="black"/>
<path d="M24.2476 18.2483V46.4362H23.1074V43.4567H23.6732V23.984L23.1074 24.4002V19.0917L24.2476 18.2483Z" fill="black"/>
<path d="M26.9664 16.5698V46.4362H25.8262V43.4568H26.4006V22.2972L25.8262 22.7217V17.4132L26.9664 16.5698Z" fill="black"/>
<path d="M29.7657 16.8728V46.4361H28.4639V43.4566H29.1105V21.925L28.4639 21.6659V16.3574L29.7657 16.8728Z" fill="black"/>
<path d="M32.4855 17.9142V46.4356H31.1836V43.4561H31.8302V22.9664L31.1836 22.7018V17.3933L32.4855 17.9142Z" fill="black"/>
<path d="M35.2023 18.9567V46.4362H33.9033V43.4568H34.5499V24.0034L33.9033 23.7443V18.4358L35.2023 18.9567Z" fill="black"/>
<path d="M37.9201 19.9985V46.4361H36.6211V43.4567H37.2735V25.0451L36.6211 24.7888V19.4775L37.9201 19.9985Z" fill="black"/>
<path d="M40.6408 21.0354V46.4367H39.3418V43.4572H39.9884V26.0875L39.3418 25.8229V20.5227L40.6408 21.0354Z" fill="black"/>
<path d="M43.3595 22.0791V46.4358H42.0576V43.4564H42.7129V27.1285L42.0576 26.8667V21.5554L43.3595 22.0791Z" fill="black"/>
<path d="M46.0792 23.121V46.4359H44.7773V43.4564H45.4239V28.1649L44.7773 27.9086V22.6001L46.0792 23.121Z" fill="black"/>
<path d="M48.798 24.1635V46.4365H47.4961V43.457H48.1485V29.2101L47.4961 28.9511V23.6426L48.798 24.1635Z" fill="black"/>
<path d="M51.5167 25.1996V46.4363H50.2148V43.4568H50.8614V30.2518L50.2148 29.9872V24.6787L51.5167 25.1996Z" fill="black"/>
<path d="M52.9346 25.7202L54.2335 26.2411V46.436H52.9346V25.7202Z" fill="black"/>
</svg>

<svg width="65" height="73" fill="none" xmlns="http://www.w3.org/2000/svg"><circle cx="32.233" cy="32.357" r="32" fill="#DBBC9A"/><path d="m32.733 72.357-5.629-10.5h11.259l-5.63 10.5Z" fill="#DBBC9A"/><path d="m12.233 25.811 1.14-.838v21.463h-1.14V25.811ZM16.087 23.295v23.14h-1.132v-2.979h.566V29.022l-.566.419V24.13l1.132-.835ZM18.808 21.613v24.823h-1.137v-2.98h.566V27.35l-.566.419v-5.312l1.137-.843ZM21.528 19.935v26.501h-1.14v-2.98h.568V25.669l-.568.413v-5.308l1.14-.838ZM24.248 18.248v28.188h-1.14v-2.98h.565V23.985l-.566.416v-5.308l1.14-.844ZM26.966 16.57v29.866h-1.14v-2.98h.575V22.298l-.575.425v-5.309l1.14-.843ZM29.766 16.873v29.563h-1.302v-2.98h.646V21.926l-.646-.26v-5.308l1.302.516ZM32.486 17.914v28.522h-1.302v-2.98h.646v-20.49l-.646-.264v-5.309l1.302.521ZM35.202 18.957v27.48h-1.299v-2.98h.647V24.003l-.647-.259v-5.308l1.3.52ZM37.92 19.998v26.438h-1.299v-2.98h.652v-18.41l-.652-.257v-5.312l1.3.521ZM40.64 21.035v25.402h-1.298v-2.98h.646v-17.37l-.646-.264v-5.3l1.299.512ZM43.36 22.08v24.356h-1.302v-2.98h.655V27.128l-.655-.261v-5.312l1.301.524ZM46.08 23.121v23.315h-1.303v-2.98h.647V28.165l-.647-.256V22.6l1.302.521ZM48.798 24.163v22.274h-1.302v-2.98h.652V29.21l-.652-.259v-5.308l1.302.52ZM51.517 25.2v21.236h-1.302v-2.98h.646V30.253l-.646-.265V24.68l1.302.52ZM52.935 25.72l1.298.521v20.195h-1.298V25.72Z" fill="#000"/></svg>
